X:1
T:Ah! vous dirai-je, maman
T:Ah! vous dirai-je, maman
T:Wolfgang Amadeus Mozart
C:Wolfgang Amadeus Mozart
%%score [ 1 ( 2 3 ) ]
L:1/8
M:2/4
K:C
V:1 treble nm="Violin I"
V:2 treble nm="Violin II"
V:3 treble 
V:1
"^Theme" .c2 .c2 | .g2 .g2 | .a2 .a2 | .g2 .g2 | .f2 .f2 | .e2 .e2 | .d2 .d2 | c4 ::!mf! .g2 .g2 | %9
 .f2 .f2 | .e2 .e2 | .d2 .d2 |!p! .g2 .g2 | .f2 .f2 | e2 ef | e2 d2 | .c2 .c2 | .g2 .g2 | .a2 .a2 | %19
 .g2 .g2 | .f2 .f2 | .e2 .e2 | .d2 .d2 | c4 ::"^Var I."!mf! c z z (c | g2) z (g | a2) z (a | %27
 g2) z g | z f z f | z e z e | z d z d | c2 z2 :: g2 z (g | ^f) z z (=f | e) z z (_e | d) z z (G | %36
 g2) z (g/^f/ | f) z z (f/e/ | _e) z z (^f/g/ | d) z z (=f/d/ | c) z z ((c/e/ | g2)) z ((g/e/ | %42
 a2)) z ((a/f/ | g2)) z (e/g/) | z (g/^f/) z (d/=f/) | z (f/e/) z (g/e/) | z (^c/d/) z (f/d/) | %47
 z (B/c/) z2 ::"^Var II" c2 c2 | g2 g2 | (a2 f2) | (g2 e2) | (f2 d2) | (e2 c)c | (cB) (AB) | c4 :: %56
 g2 g2 | f2 f2 | e2 (e>f) | e2 d2 | c2 ((c2 | c)B) (AB) | .c.c .d.e | .f.g .a.b | c'2 c'2 | g2 g2 | %66
 a2 a2 | g2 (e>g) | f2 (d>f) | e2 c2 | (cB) (AB) | c2 z2 :: %72
!mp!"^Var III, Adagio"[Q:1/8=60] (c>G) (e>c) | g g2 (g | a) a2 (a | g) g2 g | %76
 (g/f/)f z/ (^f/g/d/) | (f/>e/)e z/ ((a/4g/4)(f/4e/4d/4c/4)) | (B/>A/)(g/4f/4e/4d/4) cB | %79
!>(! (d2 c) z!>)! ::!p! (g3/2a/4b/4) (c'/b/a/g/) | (g/f/)(e/d/) cB | %82
 (c/(3(d/4c/4B/4)c/d/) (e/(3(f/4e/4d/4)e/f/) |!>(! (e3/2f/4e/4) (d/e/f/^f/)!>)! | %84
!p! (g3/2a/4b/4) ((c'/b/)(a/g/)) | (g/f/)(f/e/) (e/d/)(c/B/) | %86
 (c/>c'/)(!fermata!c' c'/4)d'/4e'/4d'/<c'/^f/4 |!>(! a2 g (3!fermata!z/4 a/4g/4(3f/4e/4d/4!>)! | %88
 ((c>G)) ((e>c)) | g g2 (g | a) a2 (a | g) g2 g | (g/f/)f z/ (^f/g/d/) | %93
 (f/>e/)e z/ ((a/4g/4)(f/4e/4d/4c/4)) | (B/>A/)(g/4f/4e/4d/4) cB | (d2 c) z :| %96
[M:3/4][Q:1/4=112]!f!"^Var IV, Finale" !>!c2 z2 (c2 | !>!g2) z2 (c2 | !>!a2) !>!a2 !>!a2 | %99
 !>!g2 z2 (g2 | ^f2) z2 (=f2 | e2) z2 (c2 | d2) f2 B2 | c2 z4 :| (ag) gg gg | (gf) ff ff | %106
 (fe) ee ee | (ed) dd dd | (ag) gg gg | (gf) ff ff | (fe) ee ee | ed dd dd |!f! !>!c2 z2 c2 | %113
 !>!g2 z2 c2 | !>!a2 !>!a2 !>!a2 | !>!g2 z2 g2 | ^f2 z2 =f2 | e2 z2 c2 | d2 f2 B2 |1 c2 z4 :|2 %120
 c2 z2 g2 || ^f2 z2 =f2 | e2 z2 c2 | d2 f2 B2 | c2 z4 |!p! .g.f .e.d .c.B |!f! c2 z4 | %127
 .g.f .e.d .c.B | c2!f! C2 E2 | G2 E2 G2 | c2 e2 g2 | c'2 z4 |] %132
V:2
 .C2 .C2 | .E2 .C2 | .F2 .C2 | .E2 .C2 | .D2 .B,2 | .C2 .A2 | .F2 .G2 | C4 :: .E2 .G,2 | .D2 .G,2 | %10
 .C2 .G,2 | .B,2 .G,2 | .E2 .G,2 | .D2 .G,2 | C2 CD | C2 B,2 | .C2 .C2 | .E2 .C2 | .F2 .C2 | %19
 .E2 .^C2 | .D2 .B,2 | .C2 .A2 | .F2 .G2 | C4 :: z (C E) z | z (E C) z | z (F C) z | z (E C2) | %28
 d2 B2 | c2 A2 | F2 G2 | z C C2 :: z (E G,2) | z (D G,2) | z (C G,2) | z (B, G,2) | z (E G,2) | %37
 z (D G,2) | z (C G,2) | z (B, G,2) | z (C/E/ G2) | z (C/E/ G2) | z (F/A/ C2) | z (E/G/ C2) | %44
 d2 B2 | c2 A2 | F2 G2 | z C C2 :: z4 | z4 | F2 F2 | c2 c2 | [G,G]2 [G,G]2 | c2 c2 | [G,D]2 G,2 | %55
 C4 :: z4 | z4 | [Gc]2 [Gc]2 | [FB]2 [FB]2 | G2 G2 | F2 F2 | E2 E2 | D2 D2 | C2 z2 | z4 | F2 F2 | %67
 C2 C2 | [G,D]2 [G,D]2 | C2 [CE]2 | [G,F]2 G,2 | C2 z2 :: z4 | (C>G,) (E>C) | F>C A>F | %75
 ([CE]>G,) (E>C) | [FA] z [B,G] z | [Ec] z [CE] z | [DF]2 GF | CG, C z :: %80
 G,/.[CE]/.[CE]/.[CE]/ G,/.[CE]/.[CE]/.[CE]/ | G,/.[DF]/.[DF]/.[DF]/ G,/.[DF]/.[DF]/.[DF]/ | %82
 [G,E]>B, C>D | [CE]2 [B,D] z | G,/[CE]/[CE]/[CE]/ G,/[CE]/[CE]/[CE]/ | %85
 G,/[DF]/[DF]/[DF]/ G,/[B,D]/[B,D]/[B,D]/ | [CE] !fermata![A,^F]2 z | C2 B, !fermata!z | z4 | %89
 ((C>G,)) ((E>C)) | (F>C) (A>F) | (([CE]>G,)) ((E>C)) | [FA] z [B,G] z | [Ec] z [CE] z | [DF]2 GF | %95
 CG, C z :|[M:3/4]!f! CC B,C B,C | EC B,C B,C | FC B,C B,C | EC B,C B,C | D^C D=C B,G, | %101
 CB, CA, DE | F^F GF GG, | CE Gc C z :| (G,E) EE EE | (G,D) DD DD | (G,C) CC CC | %107
 (G,B,) B,B, B,B, | (G,E) EE ee | (G,D) DD dd | (G,C) CC cc | (G,B,) B,B, BB | CC B,C B,C | %113
 EC B,C B,C | FC B,C B,C | EC B,C B,C | D^C D=C B,G, | CB, CA, DE | F^F GF GG, |1 CE Gc C z :|2 %120
 CC B,C B,C || D^C D=C B,G, | CB, CA, DE | F^F GF GG, | %124
!f! .C/.G,/.A,/.B,/ .C/.D/.E/.F/ .G/.A/.B/.c/ |!p! .e.d .c.f .e.d | %126
!f! .c/.G/.A/.B/ .c/.d/.e/.f/ .g/.a/.b/.c'/ | .E.D .C.F .E.D | C2 C/(C/B,/C/) E/(E/^D/E/) | %129
 G/(G/^F/G/) E/(E/^D/E/) G/(G/F/G/) | c/(c/B/c/) e/(e/^d/e/) g/(g/^f/g/) | [CGce]2 z4 |] %132
V:3
 x4 | x4 | x4 | x4 | x4 | x4 | x4 | x4 :: x4 | x4 | x4 | x4 | x4 | x4 | x4 | x4 | x4 | x4 | x4 | %19
 x4 | x4 | x4 | x4 | x4 :: x4 | x4 | x4 | x4 | x4 | x4 | x4 | x4 :: x4 | x4 | x4 | x4 | x4 | x4 | %38
 x4 | x4 | x4 | x4 | x4 | x4 | x4 | x4 | x4 | x4 :: x4 | x4 | x4 | x4 | x4 | x4 | x4 | x4 :: x4 | %57
 x4 | x4 | x4 | x4 | x4 | x4 | x4 | x4 | x4 | x4 | x4 | x4 | x4 | x4 | x4 :: x4 | x4 | x4 | x4 | %76
 x4 | x4 | x2 G,2 | x4 :: x4 | x4 | x4 | x4 | x4 | x4 | x4 | x4 | x4 | x4 | x4 | x4 | x4 | x4 | %94
 x2 G,2 | x4 :|[M:3/4] x6 | x6 | x6 | x6 | x6 | x6 | x6 | x6 :| x6 | x6 | x6 | x6 | x6 | x6 | x6 | %111
 x6 | x6 | x6 | x6 | x6 | x6 | x6 | x6 |1 x6 :|2 x6 || x6 | x6 | x6 | x6 | x6 | x6 | x6 | x6 | x6 | %130
 x6 | x6 |] %132

